!!!OTL: Sable Island Song (b)
!!!ONM: 143.
**kern
*clefG2
*k[b-]
*F:
*M4/4
*MM80
{4f
4g
=1
8a
4.a
4.g
8f
=2
4d
2f}
{8f
8g
=3
8a
4.a
4.f
8e
=4
2f
4r}
{8f
8g
=5
4.a
8a
4g
4f
=6
4g
2f}
{8f
8g
=7
4.a
8f
4f
4g
=8
2f
4r}
{4f
=9
4.a
8a
4.g
8f
=10
4.a
8a
4g}
{8f
8f
=11
4.f
8f
4.f
8c
=12
2f
4r}
{4f
=13
4.a
8a
4.g
8f
=14
4.g
8f
4.f}
{8f
=15
4.a
8f
4.f
8e
=16
2f}
==
*-
!!!CNT: Folksongs of Maritime Canada
!!!MRD: 1928///-1932///
!!!OCL: Helen Creighton
!!!YOR: Songs and Ballads from Nova Scotia
!!!PPR: J.M. Dent & Sons, Limited
!!!PPP: Toronto, Canada
!!!PDT: 1932///
!!!reprint: Dover Publications, 1992: ISBN 0-486-21703-5
!!!ENC1: Craig Stuart Sapp (music and bibliographic data)                       
!!!ENC2: Marcus Pearce (phrase markings and key designations)                   
!!!ENC3: Darrell Conklin (phrase markings and key designations)   
!!!END: 2002/04/10/
!!!EEV: 2004/06/05
!!!MPN: Mr. Allan Hartlan
!!!PPG: 312
!!!EFL: 145/152
!!!ARE: Canada; Nova Scotia
!!!verses: 5
!!!VTS: 1335322069
